X:303
T:Reconciliation
Z: id:dc-reel-281
M:C
L:1/8
K:A Major
cB|A2cA eAfA|eAfA ecBc|A2cA eAfA|ecBc AFEF|!
A2cA eAfA|eAfA ecBc|ABAF EAcf|ecBc A2:|!
cB|A2ce agaf|efed cdBc|A2ce agag|fbba gbeg|!
agae faec|dBcA BAFG|ABAF EAcf|ecBc A2:|!

